X: 04100
T: YEROW'S REEL
C: Bob McQuillen 15 July 79
B: Bob's Note Book 4 #100
R: reel
Z: 2020 John Chambers <jc:trillian.mit.edu>
M: C
L: 1/8
K: D
A,2 \
| DA,FE DA,DF | Adfe dAFA | BGBd AFAd | BdAF GEFE |
| DA,FE DA,DF | Adfe dAFA | BGBd AFAd | fedc d2 :|
|: A2 \
| faec dAFA | BAGF E2ef | gbfa efgf | edcB A2de |
| faec dAFA | Bdgf edcB | Adfa bgec | d2f2 d2 :|
%%begintext align
%% = FLASH!! =
%% Jane Yarow is a real good dancer
%% and a super photographer, and
%% this tune is for you, Janie, with
%% love & thanks for those great
%% pictures.
%%endtext

%%sep 1 1 500

%%sep 1 1 500

